X:15106
T:Scottish du Stockfish 2 (D. Thonon)
M:2/4
L:1/16
K:Am
e2A2 A2Ac|B2G2 A4|ABcd e2eg|d2cd e2e2|\
e2A2 A2Ac|B2G2 A4|ABcd e2dc|B2G2 A4:|
|:A2AA c2c2|A2AA c2c2|B2BB d2d2|cdec d4|\
A2AA c2c2|A2AA c2c2|B2BB d2B2|c2B2 A4:|
|:"Variation"AcAc ecec|AcAc ecec|BcBc d2B2|cdec d4|
AcAc ecec|AcAc ecec|BcBc d2B2|c2B2 A4:|
